X:1
T: Lassie, look before you
C:
R:Strathspey
Q: 128
K:D
M:4/4
L:1/16
F2|:D3A F3A D3A F3A|E3=c c3G E4 C3E|D3A F3A D3A F3B|Dd3 d3A G3F E3D|
D3A F3A D3A F3A|E3=c c3G E4 C3E|D3A F3A D3A F3B|Dd3 d3A G3F E3D|
df3 A3f d3f A3f|=c3d e3f g4 agfe|d3f A3f d3f A3f|d3e f3g a4 bagf|
d3f A3f d3f A3f|=c3d e3f g4 edg2|a3f g3e f3d e3c|d3B A2G2 G3F E3D:|
